X:296
%%etbk:tnset id:92,pos:1,rep:3x,ant:
%%etbk:wsite http://www.thesession.org/tunes/display/43
%%etbk:skill ?
T:Geese in the Bog, The
Z: Piano Box Version by Martin Fleischmann
H: Created 2013-02-19 /  Last Modified 2013-02-19
M:6/8
L:1/8
R:jig
K:Ador
B |: "C"!5!c!1!EE {B}!2!G!1!EE | !5!c!1!EE !2!GAB | !5!c!1!EE !2!G!1!E!2!D | "am"!1!E!3!AA A2B |
"C"!5!c!1!EE {B}!2!G!1!EE | !5!c!1!EE !2!GAB | !5!cBA !2!G!1!E!2!D | "am"!1!E!3!AA A3:|
|: "C"!1!cd!3!e !4!g!3!e!2!d | !3!e!5!aa !4!ged | !1!cde !4!ged | "am"!3!e!5!aa a3 |
"C"!1!cde !4!ged | !3!e!5!aa !4!g2!1!G | !5!cBA !2!G!1!E!2!D | "am"!1!E!3!AA A3:|
